!!!OTL: 649. Vorbedentung.
!!!ARE: Europa, Mitteleuropa, Deutschland, Hessen, Odenwald; Bergisches Land
!!!SCT: E0649
!!!TXL: @@DE
!!!YEM: Copyright 1995, estate of Helmut Schaffrath.
**kern	**text
*ICvox	*
*M3/8	*
*k[b-]	*
*F:	*
=1	=1
!LO:TX:a:t=Etwas langsam.	!
!LO:TX:a:t=Aus dem Odenwald und Bergiſchen 1829. 1838.	!
{(8f	Schön-
8a)	.
8b-	-ſter
=2	=2
4cc	Schatʒ
8ff	auf
=3	=3
8cc	Er-
8a	-den,
8r}	.
=4	=4
{8cc	ich
8cc	lieb
8cc	dich
=5	=5
4b-	ganʒ
8cc	al-
=6	=6
4a	-lein
8r}	.
=7	=7
{8cc	ich
8a	hoff,
8f	du
=8	=8
4g	ſollſt
8cc	mir
=9	=9
8a	wer-
8f	-den,
8r}	.
=10	=10
{8a	ſollſt
8a	auch
8a	mein
=11	=11
8gL	ei-
8fJ	.
8g	-gen
=12	=12
4f	ſein.
8r}	.
==	==
!!!AGN: Liebes - Lied
!!!ONB: ESAC (Essen Associative Code) Database: ERK2
!!!AMT: simple triple
!!!AIN: vox
!!!EED: Helmut Schaffrath
!!!EEV: 1.0
!!!GTL: Liebeslieder [Neuere (aus dem 18. bis 19. Jahrh.) - Liebeslust]
!!!URL-scan: https://rosdok.uni-rostock.de/mcrviewer/recordIdentifier/rosdok_ppn745177662/iview2/phys_0460.iview2?x=48.368023684967966&y=360.5394793606829&scale=0.7029437510502773&rotation=0&layout=singlePageLayout
!!!ENC: Anna Maria Matuszewska
!!!EEV: 2024/12/12
*-	*-
